X: 15
T: 12. REEL
B: Sam Bayard, "Hill Country Tunes" 1944 #12
S: Played by David P Gilpin, Connellsville, PA, Sep 22 1943. Learned in Cumberland, MD.
N: Variant of Kerr #113 "Push about the Jorum", etc.
R: reel
Z: 2010 John Chambers <jc:trillian.mit.edu>
M: 4/4
L: 1/8
K: G
Hd>c | BG2B "a."A2Ac | "b."BGBd [g2B2]e>d | BG2B A2"c."Ac | BdAF G2 :|
|: ef | g2 (3fgf e2d2 | eaa^g a2e<f | g2 (3fgf e2d2 | [b2d2][a2c2] [g2B2] (3def |
| g2 (3fgf e2d2 | eaa^g a2ef | gefa e2d2 | "d."BdAF G2 :|
P: VAR:
"a."A3c || "b."BA || "c."Ad || "d"bc |] y8 y8 y8 y8 y8 y8

%%sep 2 1 500
%%sep 1 1 500

